X: 1
M: 2/4
K: C
Q: 1/4=60
L: 1/8
|: G, | C2 DE | F2 FF | FE DF | E3 :|
w: Oh meu São Ben-ti-nho de trás do hos-pi-tal
|: E | FE DC | D2 DF | ED CB, | C3 :|
w: Tu des-~ ta sa-ú-de a quem es-ta-va mal
